X:112
T:Mortons Polka
R:Polka
O:Denmark
M:4/4
K:G
D2D2 | G2B2 BAGB | B2d2 dBGB | A2c2 cAFA \
|1   G2B2d2 :|2 G2B2G2 :|*
|:B2|c2e2 ecAc | B2d2 dBGB | A2c2 cAFA \
|1   G2B2 d2 :|2 G2B2 G2 :|**
